X: 34868
T: Robbie's Choice
R: jig
M: 6/8
K: Dmajor
DFA dAF|GAB EFG|FED G2F|EFD EAG|
~F3 DAF|GAB e2a|fed egb|afd d3||
ddd dAF|GAB EFG|~F3 ~G3|EFD EAG|
FEF DAF|GAB e2a|fed egb|afd d3|
|:Adf g2f|efd cBA|~B3 =c2B|ABG FED|
Adf gbf|efd B/c/de|f2f ~g3|afd d3:|

